X: 30823
T: Otters', The
R: waltz
M: 3/4
K: Eminor
|:B,2 E2 G2|(c4 c)>B|(B6|B6)|B,2 E2- E>G|c2 B2- B>^G|(A6|A6)|
B,2 ^D2 F2|(B4 B)>^G|(A6|A6)|B2 A2- A>F|B,2 A2- A>F|(G6|G2) F2 E2|
B,2 E2 G2|(c4 c)>B|(B6|B6)|E2 ^G2 B2|e2 d2- d>B|(c6|c6)|
e2 c2 A2|E4 c2|c6|B6|B,2 ^D2 F2|B2 A2 F2|1 (E6|E6):|2 E2 E>F E>^D|E2 e2- e>^d||
|:d6|d>f e>d c>B|c2 B2 B>^A|B6|B6|f>^d B>A G>F|A2 G2- G>F|G6|
B2 F2- F>G|A2 G2 F2|B2 E2- E>F|G2 (3FGF E2|B,2 ^D2- D>F|A2 G2 F2|E2 E>^D E>F|1 E2 e2 e>^d:|2 E6||

